packages/calcite-ui-icons/icons/mosaic-method-north-west-32.svg

<?xml version="1.0" encoding="UTF-8"?><svg id="icons" xmlns="http://www.w3.org/2000/svg" viewBox="0 0 32 32"><defs><style>.cls-1{fill:none;}.cls-2{opacity:.5;}.cls-3{opacity:.25;}</style></defs><path class="cls-3" d="M7,12.99896h4v4h-4v-4ZM2,7h4V3H2v4ZM12,12h4v-4h-4v4ZM7,12h4v-4h-4v4ZM17,8v4h4v-4h-4Z"/><path d="M12,13h4v2h1v-2h4v2h1V2H1v16h14v-1h-3v-4ZM17,3h4v4h-4V3ZM17,8h4v4h-4v-4ZM12,3h4v4h-4V3ZM12,8h4v4h-4v-4ZM6,17H2v-4h4v4ZM6,12H2v-4h4v4ZM6,7H2V3h4v4ZM11,17h-4v-4h4v4ZM11,12h-4v-4h4v4ZM11,7h-4V3h4v4ZM30.35352,29.64648l-.70703.70703-12.64648-12.64648v4.29297h-1v-6h6v1h-4.29297l12.64648,12.64648Z"/><rect class="cls-1" width="32" height="32"/><path class="cls-2" d="M7,3h4v3.99896h-4v-3.99896ZM2,12h4v-4H2v4ZM17,3v3.99896h4v-3.99896h-4ZM12,17h3v-1c0-.55273.44727-1,1-1v-2h-4v4Z"/></svg>

<svg xmlns="http://www.w3.org/2000/svg" viewBox="0 0 32 32"><path d="M7 12.999h4v4H7v-4zM2 7h4V3H2v4zm10 5h4V8h-4v4zm-5 0h4V8H7v4zm10-4v4h4V8h-4z" opacity=".25"/><path d="M12 13h4v2h1v-2h4v2h1V2H1v16h14v-1h-3v-4zm5-10h4v4h-4V3zm0 5h4v4h-4V8zm-5-5h4v4h-4V3zm0 5h4v4h-4V8zm-6 9H2v-4h4v4zm0-5H2V8h4v4zm0-5H2V3h4v4zm5 10H7v-4h4v4zm0-5H7V8h4v4zm0-5H7V3h4v4zm19.354 22.646l-.708.708L17 17.707V22h-1v-6h6v1h-4.293l12.647 12.646z"/><path fill="none" d="M0 0h32v32H0z"/><path d="M7 3h4v3.999H7V3zm-5 9h4V8H2v4zm15-9v3.999h4V3h-4zm-5 14h3v-1a1 1 0 0 1 1-1v-2h-4v4z" opacity=".5"/><path d="M16 16v6h1v-5h5v-1h-6z"/></svg>
